icons/linear-ele-nature-weather-partly-cloudy.svg

<svg xmlns="http://www.w3.org/2000/svg" width="32px" height="32px" viewBox="0 0 32 32" version="1.1">
    <title>linear-ele-nature-weather-partly-cloudy</title>
    <g id="linear-ele-nature-weather-partly-cloudy" stroke-width="1" fill-rule="evenodd">
        <path d="M19,5 C25.0751322,5 30,9.92486775 30,16 C30,22.0751322 25.0751322,27 19,27 L10,27 C5.581722,27 2,23.418278 2,19 C2,14.9330702 5.03987676,11.5603522 9.01313323,11.0626612 L9.177,11.044 L9.30886122,10.7912686 C11.1539699,7.36045693 14.7089824,5.1144033 18.6927336,5.00424488 L19,5 Z M19,7 C15.3866952,7 12.1676388,9.14866759 10.7470255,12.4036113 L10.4869921,12.9994063 L9.83693697,13.0035813 L9.79311446,13.0034888 C6.56782516,13.1124503 4,15.7632354 4,19 C4,22.3137085 6.6862915,25 10,25 L19,25 C23.9705627,25 28,20.9705627 28,16 C28,11.0294373 23.9705627,7 19,7 Z" id="&#24418;&#29366;" fill-rule="nonzero" />
    </g>
</svg>

<svg xmlns="http://www.w3.org/2000/svg" viewBox="0 0 32 32"><path fill="currentColor" d="M19 5c6.075 0 11 4.925 11 11s-4.925 11-11 11h-9a8 8 0 0 1-8-8c0-4.067 3.04-7.44 7.013-7.937l.164-.019.132-.253a11 11 0 0 1 9.384-5.787zm0 2a9.001 9.001 0 0 0-8.253 5.404l-.26.595-.65.005h-.044A6 6 0 0 0 10 25h9a9 9 0 0 0 0-18"/></svg>
